X:136
T: ES WOLLT EIN MAEDCHEN GRASEN GEHN
N: E0071A
O: Europa, Mitteleuropa, Deutschland, Bayern
R: erzaehlendes Volks - Lied, Sage, Liebe
M: 4/4
L: 1/8
K: G
D2 | G2G2A2A2 | BAGAG2
A2 | B2BBdcBc | d4z2
GB | d2d2d2g2 | e4d2
GB | dddddcc2 | B4z2
GB | d2d2d2g2 | e4d2
GB | dddddcc2 | B4z2

@@@ Tune index: 3786
